!!!!SEGMENT: pl-kk--kk-i-88--001-003_golabek-jakub--missa-1-et-in-terra.krn
!!!cenid: 17xx:2568
!!!COM: Gołąbek, Jakub
!!!COM-rismID: pe30008748
!!!CDT: 1739-1789/03/30
!!!CNT: Polish
!!!OPR: Missa 1
!!!OTL: Et in terra
!!!OMV: 003
!!!PDT:
!!!AGN: Sacred; Mass
!!!YEC: Copyright 2022 Narodowy Instytut Fryderyka Chopina (https://polishscores.org)
!!!YEM: License CC-BY-4.0 (https://creativecommons.org/licenses/by/4.0)
!!!SMS-siglum: PL-Kk
!!!SMS-shelfmark: Kk.I.88
!!!SMS-variant:
!!!SMS-altvar:
!!!SMS-shelfwork: 001-003 M
!!!NIFC-rismSourceID: 1001164072
!!!NIFC-rismChildID: 1001155167
!!!NIFC-islandoraID:
!!!URL-pdf-islandora: https://repozytorium.nifc.pl/islandora/object/pl-kk%3A3086/datastream/PDF/view
!!!URL-scan: https://polish.musicsources.pl/pl/lokalizacje/galeria/rekopisy/6148-missa/4 @EN{Scan on Polish Music Sources Website} @PL{Skany w portalu Dziedzictwo Muzyki Polskiej w otwartym dostępie}
!!!IIIF:
!!!ONB-nifc: UWAGA: C - f. 2r-3v; A - f. 10r-11v; T - f. 18r-19v; B - f. 26r-27v; B rip - f. 33r-34r. Proszę uwzględniać B rip. Części Mszy: 1. Kyrie, 2. Christe, 3. Et in terra, 4. Quoniam, 5. Sanctus, 6. Osanna, 7. Benedictus, 8. Agnus Dei, 9. Dona nobis
!!!AIN: 1 alto 1 bass 1 soprn 1 tenor
!!!key: C
**kern	**text	**kern	**text	**kern	**text	**kern	**text	**kern	**text
*part5	*part5	*part4	*part4	*part3	*part3	*part2	*part2	*part1	*part1
*staff5	*staff5	*staff4	*staff4	*staff3	*staff3	*staff2	*staff2	*staff1	*staff1
*IGripn	*	*	*	*	*	*	*	*	*
*ICvox	*	*ICvox	*	*ICvox	*	*ICvox	*	*ICvox	*
*	*	*Ibass	*	*Itenor	*	*Ialto	*	*Isoprn	*
*I"Baſso E ripieno	*	*I"Baſso	*	*I"Tenore	*	*I"Alto	*	*I"Canto	*
*I'B rip	*	*I'B	*	*I'T	*	*I'A	*	*I'S	*
*clefF4	*	*clefF4	*	*clefC4	*	*clefC3	*	*clefC1	*
*k[]	*	*k[]	*	*k[]	*	*k[]	*	*k[]	*
*C:	*	*C:	*	*C:	*	*C:	*	*C:	*
*M2/2	*	*M2/2	*	*M2/2	*	*M2/2	*	*M2/2	*
*met(c|)	*	*met(c|)	*	*met(c|)	*	*met(c|)	*	*met(c|)	*
=1	=1	=1	=1	=1	=1	=1	=1	=1	=1
*2\right	*	*2\right	*	*2\right	*	*2\right	*	*2\right	*
2.C/	Et	2.C/	Et	2.G/	Et	2.e\	Et	2.cc\	Et
4C/	in	4C/	in	4G/	in	4e\	in	4cc\	in
=2	=2	=2	=2	=2	=2	=2	=2	=2	=2
2E\	ter-	2E\	ter-	2G/	ter-	2g\	ter-	2cc\	ter-
2F\	-ra	2F\	-ra	2c\	-ra	2a\	-ra	2cc\	-ra
=3	=3	=3	=3	=3	=3	=3	=3	=3	=3
2G\	pax	2G\	pax	2d\	pax	2g\	pax	2b\	pax
2G\	ho-	2G\	ho-	2d\	ho-	2g\	ho-	2b\	ho-
=4	=4	=4	=4	=4	=4	=4	=4	=4	=4
2A\	-mi-	2A\	-mi-	2c\	-mi-	2f\	-mi-	2cc\	-mi-
2B\	-ni-	2B\	-ni-	2G/	-ni-	2d\	-ni-	2dd\	-ni-
=5	=5	=5	=5	=5	=5	=5	=5	=5	=5
2c\	-bus	2c\	-bus	2G/	-bus	2e\	-bus	2cc\	-bus
4c\	bo-	4c\	bo-	4G/	bo-	4g\	bo-	4ee\	bo-
4c\	-nae	4c\	-nae	4G/	-nae	4e\	-nae	4cc\	-nae
=6	=6	=6	=6	=6	=6	=6	=6	=6	=6
2B\	vo-	2B\	vo-	2G/	vo-	2f\	vo-	2dd\	vo-
2c\	-lun-	2c\	-lun-	2G/	-lun-	2e\	-lun-	2cc\	-lun-
=7	=7	=7	=7	=7	=7	=7	=7	=7	=7
2G\	-ta-	2G\	-ta-	2G/	-ta-	2e\	-ta-	2cc\	-ta-
2G\	-tis	2G\	-tis	2G/	-tis	2d\	-tis	2b\	-tis
!	!	!	!	!LO:LB:g=original	!	!	!	!	!
=8	=8	=8	=8	=8	=8	=8	=8	=8	=8
0r	.	0r	.	2r	.	2r	.	2r	.
.	.	.	.	2G/	Lau-	4d\	Lau-	4b\	Lau-
.	.	.	.	.	.	4e\	.	4cc\	.
!	!	!	!	!	!	!LO:LB:g=original	!	!LO:LB:g=original	!
=9	=9	=9	=9	=9	=9	=9	=9	=9	=9
.	.	.	.	2.G/	-da-	2.f\	-da-	2.dd\	-da-
.	.	.	.	4G/	-mus	4f\	-mus	4dd\	-mus
!	!	!LO:LB:g=original	!	!	!	!	!	!	!
=10	=10	=10	=10	=10	=10	=10	=10	=10	=10
2r	.	2r	.	2G/	te	2e\	te,	2cc\	te,
4G\	be-	4G\	be-	2r	.	4d\	be-	4b\	be-
4G\	-ne-	4G\	-ne-	.	.	4e\	-ne-	4cc\	-ne-
=11	=11	=11	=11	=11	=11	=11	=11	=11	=11
2G\	-di-	2G\	-di-	1r	.	2f\	-di-	2dd\	-di-
4G\	-ci-	4G\	-ci-	.	.	4f\	-ci-	4dd\	-ci-
4G\	-mus	4G\	-mus	.	.	4f\	-mus	4dd\	-mus
!LO:LB:g=original	!	!	!	!	!	!	!	!	!
=12	=12	=12	=12	=12	=12	=12	=12	=12	=12
2C/	te	2C/	te	2r	.	2e\	te,	2cc\	te,
4C/	a-	4C/	a-	4G/	a-	4e\	a-	4cc\	a-
4BB/	-do-	4BB/	-do-	4G/	-do-	4f\	-do-	4dd\	-do-
=13	=13	=13	=13	=13	=13	=13	=13	=13	=13
2C/	-ra-	2C/	-ra-	2c\	-ra-	2g\	-ra-	2ee\	-ra-
4BB/	.	4BB/	.	2G/	-mus	4f\	.	4dd\	.
4C/	-mus	4C/	-mus	.	.	4e\	-mus	4cc\	-mus
=14	=14	=14	=14	=14	=14	=14	=14	=14	=14
2G\	te,	2G\	te,	2G/	te,	2d\	te,	2b\	te,
2G\	glo-	2G\	glo-	2G/	glo-	2d\	glo-	2b\	glo-
=15	=15	=15	=15	=15	=15	=15	=15	=15	=15
2C/	-ri-	2C/	-ri-	2G/	-ri-	2e\	-ri-	2cc\	-ri-
2F\	-fi-	2F\	-fi-	2A/	-fi-	2f\	-fi-	2dd\	-fi-
=16	=16	=16	=16	=16	=16	=16	=16	=16	=16
2G\	-ca-	2G\	-ca-	2G/	-ca-	2e\	-ca-	2cc\	-ca-
2GG/	-mus	2GG/	-mus	2G/	-mus	2d\	-mus	2b\	-mus
=17	=17	=17	=17	=17	=17	=17	=17	=17	=17
2C/	te	2C/	te	2G/	te	2e\	te	2cc\	te
2r	.	2r	.	2r	.	2r	.	2r	.
!	!	!LO:PB:g=original	!	!LO:PB:g=original	!	!LO:PB:g=original	!	!LO:PB:g=original	!
=18	=18	=18	=18	=18	=18	=18	=18	=18	=18
4AA/	Gra-	4AA/	Gra-	2A/	Gra-	2e\	Gra-	2cc\	Gra-
4C/	.	4C/	.	.	.	.	.	.	.
4E\	-ti-	4E\	-ti-	4A/	-ti-	4e\	-ti-	4cc\	-ti-
4A\	-as	4A\	-as	4A/	-as	4e\	-as	4cc\	-as
=19	=19	=19	=19	=19	=19	=19	=19	=19	=19
4G#X\	a-	4G#X\	a-	4B\	a-	2e\	a-	2dd\	a-
4A\	.	4A\	.	4c\	.	.	.	.	.
4B\	-gi-	4B\	-gi-	4d\	-gi-	4e\	-gi-	4dd\	-gi-
4G#\	-mus	4G#\	-mus	4B\	-mus	4e\	-mus	4dd\	-mus
=20	=20	=20	=20	=20	=20	=20	=20	=20	=20
4A\	ti-	4A\	ti-	1A	ti-	2.e\	ti-	1cc	ti-
4F\	.	4F\	.	.	.	.	.	.	.
4E\	.	4E\	.	.	.	.	.	.	.
4D#X\	.	4D#X\	.	.	.	4f#X\	.	.	.
!LO:LB:g=original	!	!	!	!	!	!	!	!	!
=21	=21	=21	=21	=21	=21	=21	=21	=21	=21
2E\	-bi	2E\	-bi	2G#X/	-bi	2e\	-bi	2b\	-bi
4G#X\	p(ro)p-	4G#X\	p(ro)p-	4B/	p(ro)p-	4e\	p(ro)p-	4dd\	p(ro)p-
4E\	-ter	4E\	-ter	4G#/	-ter	4e\	-ter	4b\	-ter
=22	=22	=22	=22	=22	=22	=22	=22	=22	=22
4A\	ma-	4A\	ma-	2A/	ma-	2e\	ma-	2cc\	mag-
4E\	.	4E\	.	.	.	.	.	.	.
4C/	.	4C/	.	2A/	-gnam	2e\	-gna(m)	2cc\	-nam
4AA/	-gnam	4AA/	-gnam	.	.	.	.	.	.
=23	=23	=23	=23	=23	=23	=23	=23	=23	=23
2D/	glo-	2D\	glo-	2G#X/	glo-	2fn\	glo-	2b\	glo-
4C/	-ri-	4C\	-ri-	4A/	-ri-	4e\	-ri-	4cc\	-ri-
4D/	-am	4D\	-am	4A/	-am	4f\	-am	4b\	-am
=24	=24	=24	=24	=24	=24	=24	=24	=24	=24
1E	tu-	1E	tu-	2A/	tu-	1e	tu-	2cc\	tu-
!	!	!	!	!LO:SIC:v:s=2G#/	!	!	!	!	!
.	.	.	.	2G/	.	.	.	2b\	.
=25	=25	=25	=25	=25	=25	=25	=25	=25	=25
2AA/	-am	2AA/	-am	2A/	-am.	2e\	-am.	2cc\	-am
4G\	Do-	4G\	Do-	4A/	Do-	4e\	Do-	4cc#X\	Do-
8G\	-mi-	8G\	-mi-	8A/	-mi-	8e\	-mi-	8cc#\	-mi-
8G\	-ne	8G\	-ne	8A/	-ne	8e\	-ne	8cc#\	-ne
!	!	!LO:LB:g=original	!	!LO:LB:g=original	!	!LO:LB:g=original	!	!LO:LB:g=original	!
=26	=26	=26	=26	=26	=26	=26	=26	=26	=26
4F\	De-	4F\	De-	4A/	De-	4f\	De-	4dd\	De-
4E\	-us	4E\	-us	4A/	-us	4g\	-us	4cc#X\	-us
8D\L	rex	8D\L	rex	4A/	rex	4f\	rex	4dd\	rex
8E\J	.	8E\J	.	.	.	.	.	.	.
8F\L	cae-	8F\L	cae-	4A/	cae-	4f\	cae-	4dd\	cae-
8G\J	.	8G\J	.	.	.	.	.	.	.
=27	=27	=27	=27	=27	=27	=27	=27	=27	=27
!	!	!	!	!	!	!	!	!LO:SIC:v:s=4cc#\	!
4A\	-les-	4A\	-les-	4A/	-les-	4e\	-le-	4cc\	-le-
!	!	!	!	!	!	!	!	!LO:SIC:v:s=4cc#\	!
4A\	tis	4A\	tis	4A/	-tis	4e\	-stis	4cc\	-stis
4c#X\	De-	4c#X\	De-	4A/	De-	4g\	De-	4ee\	De-
!	!	!	!	!	!	!	!	!LO:SIC:v:s=4cc#\	!
4A\	-us	4A\	-us	4A/	-us	4e\	-us	4cc\	-us
!LO:LB:g=original	!	!	!	!	!	!	!	!	!
=28	=28	=28	=28	=28	=28	=28	=28	=28	=28
8d\L	Pa-	8d\L	Pa-	4A/	Pa-	4f\	Pa-	4dd\	Pa-
8A\J	.	8A\J	.	.	.	.	.	.	.
8F\	-ter	8F\	-ter	8A/	-ter	8f\	-ter	8dd\	-ter
8G\	om-	8G\	om-	8B-X/	om-	8g\	om-	8ee\	om-
4A\	-ni-	4A\	-ni-	4A/	-ni-	4f\	-ni-	4dd\	-ni-
4AA/	-po-	4AA/	-po-	4A/	-po-	4e\	-po-	4cc#X\	-po-
=29	=29	=29	=29	=29	=29	=29	=29	=29	=29
2D\	-tens	2D\	-tens	2A/	-tens	2f\	-tens	2dd\	-tens
4d\	Do-	4d\	Do-	4A/	Do-	4f#X\	Do-	4ccn\	Do-
8d\	-mi-	8d\	-mi-	8A/	-mi-	8f#\	-mi-	8cc\	-mi-
8d\	-ne	8d\	-ne	8A/	-ne	8f#\	-ne	8cc\	-ne
=30	=30	=30	=30	=30	=30	=30	=30	=30	=30
4B-X\	fi-	4B-X\	Fi-	4G/	Fi-	4g\	Fi-	4dd\	Fi-
4G\	-li	4G\	-li	4B-X/	-li	4g\	-li	4dd\	-li
4c\	u-	4c\	u-	4G/	u-	4e\	u-	4b-X\	u-
4B-X\	-ni-	4B-X\	-ni-	4G/	-ni-	4e\	-ni-	4cc\	-ni-
=31	=31	=31	=31	=31	=31	=31	=31	=31	=31
8A\	-ge-	8A\	-ge-	8A\	-ge-	8f\	-ge-	8cc\	-ge-
!	!	!	!	!LO:SIC:v:s=8B-\	!	!	!	!	!
8G\	-ni-	8G\	-ni-	8B\	-ni-	8g\	-ni-	8cc\	-ni-
4F\	-te,	4F\	-te	4c\	-te	4a\	-te	4cc\	-te
!	!	!	!	!LO:SIC:v:s=4B-\	!	!	!	!LO:LB:g=original	!
4E\	Je-	4E\	Je-	4B\	Je-	4g\	Je-	4cc\	Je-
4F\	-su	4F\	-su	4A\	-su	4f\	-su	4cc\	-su
!	!	!LO:LB:g=original	!	!LO:LB:g=original	!	!LO:LB:g=original	!	!	!
=32	=32	=32	=32	=32	=32	=32	=32	=32	=32
1C	chri-	1C	chri-	2A/	Chris-	2f\	chris-	1cc	chris-
.	.	.	.	2G/	.	2e\	.	.	.
=33	=33	=33	=33	=33	=33	=33	=33	=33	=33
2F\	-ste.	2F\	-ste.	2A/	-te	2f\	-te	2cc\	-te
4F\	Do-	4F\	Do-	4Bn\	Do-	4f\	Do-	4dd\	Do-
8F\	-mi-	8F\	-mi-	8B\	-mi-	8f\	-mi-	8dd\	-mi-
8F\	-ne	8F\	-ne	8B\	-ne	8f\	-ne	8dd\	-ne
=34	=34	=34	=34	=34	=34	=34	=34	=34	=34
8E\L	De-	8E/L	De-	4G/	De-	8e\L	De-	8cc\L	De-
8D\J	.	8D/J	.	.	.	8f\J	.	8dd\J	.
4C/	-[us]	4C/	-us	4G/	-us	4g\	-us	4ee\	-us
!LO:LB:g=original	!	!	!	!	!	!	!	!	!
4BBn/	a-	4BBn/	a-	4G/	a-	4f\	a-	4dd\	a-
4C/	-gnus	4C/	-gnus	4G/	-gnus	4e\	-gnus	4cc\	-gnus
=35	=35	=35	=35	=35	=35	=35	=35	=35	=35
4G\	De-	4G\	De-	4G/	De-	4e\	De-	4cc\	De-
4GG/	-i	4GG/	-i	4G/	-i	4d\	-i	4bn\	-i
4G\	Fi-	4G\	Fi-	4G/	Fi-	4d\	Fi-	4b\	Fi-
8G\	-li-	8G\	-li-	8G/	-li-	8e\	-li-	8cc\	-li-
8G\	-us	8G\	-us	8B/	-us	8f\	-us	8dd\	-us
=36	=36	=36	=36	=36	=36	=36	=36	=36	=36
4C\	Pa-	4C\	Pa-	1G	Pa-	2e\	Pa-	2cc\	Pa-
4E\	.	4E\	.	.	.	.	.	.	.
4G\	.	4G\	.	.	.	2d\	.	2b\	.
4GG/	.	4GG/	.	.	.	.	.	.	.
=37	=37	=37	=37	=37	=37	=37	=37	=37	=37
2C/	-tris	2C/	-tris	2G/	-tris	2e\	-tris,	2cc\	-tris
2C/	qui	2C/	Qvi	2c\	Qvi	2g\	qui-	2ee\	qui
=38	=38	=38	=38	=38	=38	=38	=38	=38	=38
*M3/2	*	*M3/2	*	*M3/2	*	*M3/2	*	*M3/2	*
2C/	tol-	2C/	tol-	2c\	tol-	2g\	-tol-	2ee\	tol-
2E\	-lis	2E/	-lis	2c\	-l[is]	2g\	-lis	2ee\	-lis
2G\	pec-	2G\	pec-	2B\	pec-	2f\	pec-	2dd\	pec-
!	!	!LO:LB:g=original	!	!LO:LB:g=original	!	!LO:LB:g=original	!	!LO:LB:g=original	!
=39	=39	=39	=39	=39	=39	=39	=39	=39	=39
2E\	-ca-	2E\	-ca-	1G	-ca-	2g\	-ca-	1cc	-ca-
2C/	.	2C/	.	.	.	2e\	.	.	.
2G\	-ta	2G\	-ta	2G/	-ta	2d\	-ta	2b\	-ta
=40	=40	=40	=40	=40	=40	=40	=40	=40	=40
2c\	mun-	2c\	mun-	1.A	mun-	1e	mun-	1.cc	mun-
2A\	.	2A\	.	.	.	.	.	.	.
2F#X\	.	2F#X\	.	.	.	2f#X\	.	.	.
=41	=41	=41	=41	=41	=41	=41	=41	=41	=41
!LO:TX:t=P:problem:nieczytelne źrodło	!	!	!	!	!	!	!	!	!
2G\yy	-di	2G\	-di	2d\	-di	2g\	-di	2b\	-di
2G\yy	[mi-	2G\	mi-	2B\	mi-	2fn\	mi-	2dd\	mi-
2G\yy	-se]-	2G\	-se-	2B\	-se-	2f\	-se-	2dd\	-se-
!LO:PB:g=original	!	!	!	!	!	!	!	!	!
=42	=42	=42	=42	=42	=42	=42	=42	=42	=42
2G\	-re-	2G\	-re-	2B\	-re-	1f	-re-	1dd	-re-
2B\	.	2B\	.	2G/	.	.	.	.	.
2c\	-re	2c\	-re	2G/	-re	2e\	-re	2cc\	-re
=43	=43	=43	=43	=43	=43	=43	=43	=43	=43
2F\	no-	2F\	no-	2A/	no-	2d\	no-	2a\	no-
2G\	.	2G\	.	1G	.	2e\	.	2cc\	.
2GG/	.	2GG/	.	.	.	2d\	.	2b\	.
=44	=44	=44	=44	=44	=44	=44	=44	=44	=44
1C	-bis,	1C	-bis.	1G	-bis	1e	-bis	1cc	-bis
4C/	qui	4C/	qui	2c\	qui	4g\	qui	4ee\	qui
4E/	.	4E/	.	.	.	4e\	.	4cc\	.
=45	=45	=45	=45	=45	=45	=45	=45	=45	=45
2G\	tol-	2G\	tol-	2B\	tol-	2d\	tol-	2b\	tol-
2G\	-lis	2G\	-lis	2G/	-lis	2d\	-lis	2b\	-lis
2c\	pec-	2c\	pec-	2G/	pec-	2e\	pec-	2cc\	pec-
!	!	!	!	!	!	!LO:LB:g=original	!	!	!
=46	=46	=46	=46	=46	=46	=46	=46	=46	=46
2B\	-ca-	2B\	-ca-	1B	-ca-	1f	-ca-	1dd	-ca-
2G\	.	2G\	.	.	.	.	.	.	.
2c\	-ta	2c\	-ta	2G/	-ta	2e\	-ta	2cc\	-ta
!	!	!LO:LB:g=original	!	!	!	!	!	!	!
=47	=47	=47	=47	=47	=47	=47	=47	=47	=47
2G\	mun-	2G\	mun-	2G/	mun-	2e\	mun-	2cc\	mun-
2G\	-di	2G\	-di	2G/	-di	2d\	-di	2b\	-di
2r	.	2r	.	2r	.	2r	.	2r	.
!	!	!	!	!LO:LB:g=original	!	!	!	!LO:LB:g=original	!
=48	=48	=48	=48	=48	=48	=48	=48	=48	=48
2.G#X\	sus-	2.G#X\	Sus-	2.B\	Sus-	2.fn\	Sus-	2.dd\	sus-
4G#\	-ci-	4G#\	-ci-	4B\	-ci-	4f\	-ci-	4dd\	-ci-
2G#\	-pe	2G#\	-pe	2B\	-pe	2f\	-pe	2dd\	-pe
=49	=49	=49	=49	=49	=49	=49	=49	=49	=49
*	*ij	*	*ij	*	*ij	*	*ij	*	*ij
2.A\	sus-	2.A\	Sus-	2.A/	Sus-	2.e\	Sus-	2.cc\	sus-
4E\	-ci-	4E\	-ci-	4G#X/	-ci-	4e\	-ci-	4b\	-ci-
2AA/	-pe	2AA/	-pe	2A/	-pe	2e\	-pe	2cc\	-pe
*	*Xij	*	*Xij	*	*Xij	*	*Xij	*	*Xij
=50	=50	=50	=50	=50	=50	=50	=50	=50	=50
2AA/	de-	2AA/	de-	2c\	de-	2e\	de-	2cc\	de-
2BB/	.	2BB/	.	2d\	.	2d\	.	2b\	.
2C/	-pre-	2C/	-pre-	2e\	-pre-	2c\	-pre-	2a\	-pre-
!LO:LB:g=original	!	!	!	!	!	!	!	!	!
=51	=51	=51	=51	=51	=51	=51	=51	=51	=51
2D/	-ca-	2D/	-ca-	2f\	-ca-	2B/	-ca-	2g#/	-ca-
2C/	.	2C/	.	2e\	.	2c/	.	2a/	.
2BB/	-ti-	2BB/	-ti-	2d\	-ti-	2d/	-ti-	2b/	-ti-
=52	=52	=52	=52	=52	=52	=52	=52	=52	=52
2AA/	-o-	2AA/	-o-	2c\	-o-	2e\	-o-	2cc\	-o-
2BB/	.	2BB/	.	2d\	.	2d\	.	2b\	.
2C/	-nem	2C/	-nem	2e\	-nem	2c\	-nem	2a\	-nem
=53	=53	=53	=53	=53	=53	=53	=53	=53	=53
2D\	nos-	2D\	nos-	2d\	nos-	2f\	nos-	2a\	nos-
1E	.	1E	.	1B	.	1e	.	1g#X	.
!	!	!	!	!	!	!LO:LB:g=original	!	!	!
=54	=54	=54	=54	=54	=54	=54	=54	=54	=54
2AA/	-tram,	2AA/	-tram.	2c\	-tram,	2e\	-tram,	2a\	-tram,
2r	.	2r	.	2r	.	2r	.	2r	.
2GGn/	qui	2GGn/	qui	2G/	qui	2d\	qui	2b\	qui
=55	=55	=55	=55	=55	=55	=55	=55	=55	=55
2C/	se-	2C/	se-	2c\	se-	2g\	se-	2ee\	se-
2E\	-des	2E/	-des	2c\	-des	2g\	-des	2ee\	-des
2G\	ad	2G\	ad	2B\	ad	2f\	ad	2dd\	ad
!	!	!	!	!LO:LB:g=original	!	!	!	!LO:LB:g=original	!
=56	=56	=56	=56	=56	=56	=56	=56	=56	=56
2.E\	dex-	2.E\	dex-	2.G/	dex-	2.e\	dex-	2.cc\	dex-
4D\	-te-	4D\	-te-	4G/	-te-	4f\	-te-	4dd\	-te-
!	!	!LO:N:vis=1	!	!	!	!	!	!	!
2C/	-ram	2C/	-ram	2G/	-ram	2g\	-ram	2ee\	-ram
!	!	!LO:LB:g=original	!	!	!	!	!	!	!
=57	=57	=57	=57	=57	=57	=57	=57	=57	=57
2C/	ad	2C/	ad	2G/	ad	2g\	ad	2ee\	ad
2BB/	dex-	2BB/	dex-	2G/	dex-	2f\	dex-	2dd\	dex-
4C/	-te-	4C/	-te-	4G/	-te-	4e\	-te-	4cc\	-te-
4C/	-ram	4C/	-ram	4G/	-ram	4e\	-ram	4cc\	-ram
=58	=58	=58	=58	=58	=58	=58	=58	=58	=58
2G\	Pa-	2G\	Pa-	2G/	Pa-	2e\	Pa-	2cc\	Pa-
2GG/	-tris	2GG/	-tris	2G/	-tris	2d\	-tris	2b\	-tris
2r	.	2r	.	2r	.	2r	.	2r	.
=59	=59	=59	=59	=59	=59	=59	=59	=59	=59
2G\	mi-	2G\	mi-	2B\	mi-	2g\	mi-	1dd	mi-
2A\	.	2A\	.	2c\	.	2f#X\	.	.	.
2B\	-se-	2B\	-se-	2d\	-se-	2fn\	-se-	2g/	-se-
!LO:LB:g=original	!	!	!	!	!	!	!	!	!
=60	=60	=60	=60	=60	=60	=60	=60	=60	=60
2c\	-re-	2c\	-re-	2e\	-re-	2e\	-re-	1g	-re-
2B\	.	2B\	.	2d\	.	2f\	.	.	.
2c\	-re	2c\	-re	2c\	-re	2e\	-re	2g/	-re
=61	=61	=61	=61	=61	=61	=61	=61	=61	=61
2A\	no-	2A\	no-	2A/	no-	2f\	no-	2dd\	no-
1G	.	1G	.	1G	.	2e\	.	2cc\	.
.	.	.	.	.	.	2d\	.	2b\	.
=62	=62	=62	=62	=62	=62	=62	=62	=62	=62
1.C	-bis	1.C	-bis	1.G	-bis	1.e	-bis	1.cc	-bis
==	==	==;;	==	==;;	==	==;;	==	==;;	==
*-	*-	*-	*-	*-	*-	*-	*-	*-	*-
!!!system-decoration: [(s1,s2,s3,s4)]s5
!!!RDF**kern: i = editorial accidental
!!!RDF**kern: > = above
!!!RDF**kern: < = below
!!!RDF**kern: N = linked
!!!RDF**dynam: > = "dim.", fontstyle= "italic"
!!!ENC: Berenika Jozajtis
!!!EED: Katarzyna Serwa
!!!END: 2024-02-22
!!!EEV: 2024-05-01
